src/icons/icons_set_02/013-smiley-excellent.svg

<svg height="50" viewBox="0 0 50 50" width="50" xmlns="http://www.w3.org/2000/svg"><path d="m39.1194133 6.89238832.0017125.00171341c8.8900982 8.90536727 8.8900982 23.32763197-.0017125 32.23471267-8.900361 8.8940753-23.3250787 8.8906785-32.22124987-.0075876-8.89617115-8.8982664-8.89617115-23.3229845.00000001-32.22125083 8.89617116-8.89826632 23.32088886-8.90166314 32.22124986-.00758765zm-29.39248973 2.83568173c-7.334518 7.33624535-7.334518 19.22881715-.00000001 26.56506265 7.33451804 7.3362452 19.22708954 7.3390457 26.56334934.007969 7.3309501-7.3435413 7.3312354-19.2362481.0008557-26.58014351-7.3380413-7.33193382-19.2299725-7.32884798-26.56420503.00711186zm23.27645643 16.42487925c.1048872.157893.1228025.3581214.0476113.5321267-1.6804 3.881724-5.6013333 6.3883207-10.0179846 6.3883207-4.4978707 0-8.4552127-2.5206-10.0824-6.419128-.0725291-.1741454-.0525282-.373102.0532126-.529326.1036981-.1554264.2780671-.2489134.4649107-.2492594l19.0445333.0224054c.1898995-.0002969.3670168.0956417.470512.2548606zm-17.467758-7.3489493c-.7303531-1.0007936-.5912111-2.3907417.3230318-3.2269015.914243-.8361598 2.3110594-.8509881 3.2428472-.0344251.9317878.8165629 1.1004056 2.2032439.391463 3.2193166-.4615298-.6367557-1.2031467-1.0102095-1.9895295-1.0018615-.7863827.008348-1.5199044.3974615-1.9678125 1.0438715zm11.015022 0c-.6169046-.8511442-.6160701-2.0025929.0020676-2.8528421.6181378-.8502491 1.7131896-1.2061933 2.7131126-.8818912.9999232.324302 1.6776184 1.255196 1.6790658 2.3063933.0046345.5010179-.14819.9908402-.436904 1.4003333-.4609166-.6367458-1.2021225-1.0102793-1.9881375-1.0019293-.7860151.0083501-1.5191184.3975455-1.9664038 1.0439393z" transform="translate(1.995 1.995)"/></svg>

<?xml version="1.0" encoding="UTF-8"?>
<svg width="50px" height="50px" viewBox="0 0 50 50" version="1.1" xmlns="http://www.w3.org/2000/svg" xmlns:xlink="http://www.w3.org/1999/xlink">
    <!-- Generator: Sketch 52.2 (67145) - http://www.bohemiancoding.com/sketch -->
    <title>013-smiley-excellent</title>
    <desc>Created with Sketch.</desc>
    <g id="013-smiley-excellent" stroke="none" stroke-width="1" fill="none" fill-rule="evenodd">
        <g id="Group" transform="translate(1.995000, 1.995000)" fill="#000000" fill-rule="nonzero">
            <g id="007-smiley-excellent">
                <g id="ICONSET-01">
                    <g id="007-smiley-excellent">
                        <path d="M39.1194133,6.89238832 L39.1211258,6.89410173 C48.011224,15.799469 48.011224,30.2217337 39.1194133,39.1288144 C30.2190523,48.0228897 15.7943346,48.0194929 6.89816343,39.1212268 C-1.99800772,30.2229604 -1.99800772,15.7982423 6.89816344,6.89997597 C15.7943346,-1.99829035 30.2190523,-2.00168717 39.1194133,6.89238832 Z M9.72692357,9.72807005 C2.39240557,17.0643154 2.39240557,28.9568872 9.72692356,36.2931327 C17.0614416,43.6293779 28.9540131,43.6321784 36.2902729,36.3011017 C43.621223,28.9575604 43.6215083,17.0648536 36.2911286,9.72095819 C28.9530873,2.38902437 17.0611561,2.39211021 9.72692357,9.72807005 Z M33.00338,26.1529493 C33.1082672,26.3108423 33.1261825,26.5110707 33.0509913,26.685076 C31.3705913,30.5668 27.449658,33.0733967 23.0330067,33.0733967 C18.535136,33.0733967 14.577794,30.5527967 12.9506067,26.6542687 C12.8780776,26.4801233 12.8980785,26.2811667 13.0038193,26.1249427 C13.1075174,25.9695163 13.2818864,25.8760293 13.46873,25.8756833 L32.5132633,25.8980887 C32.7031628,25.8977918 32.8802801,25.9937304 32.9837753,26.1529493 L33.00338,26.1529493 Z M15.535622,18.804 C14.8052689,17.8032064 14.9444109,16.4132583 15.8586538,15.5770985 C16.7728968,14.7409387 18.1697132,14.7261104 19.101501,15.5426734 C20.0332888,16.3592363 20.2019066,17.7459173 19.492964,18.76199 C19.0314342,18.1252343 18.2898173,17.7517805 17.5034345,17.7601285 C16.7170518,17.7684765 15.9835301,18.15759 15.535622,18.804 Z M26.550644,18.804 C25.9337394,17.9528558 25.9345739,16.8014071 26.5527116,15.9511579 C27.1708494,15.1009088 28.2659012,14.7449646 29.2658242,15.0692667 C30.2657474,15.3935687 30.9434426,16.3244627 30.94489,17.37566 C30.9495245,17.8766779 30.7967,18.3665002 30.507986,18.7759933 C30.0470694,18.1392475 29.3058635,17.765714 28.5198485,17.774064 C27.7338334,17.7824141 27.0007301,18.1716095 26.5534447,18.8180033 L26.550644,18.804 Z" id="Combined-Shape"></path>
                    </g>
                </g>
            </g>
        </g>
    </g>
</svg>
